icons/ml.svg

<?xml version="1.0" ?>
<svg xmlns="http://www.w3.org/2000/svg" xmlns:ev="http://www.w3.org/2001/xml-events" xmlns:xlink="http://www.w3.org/1999/xlink" baseProfile="full" height="564px" version="1.1" viewBox="-1029.6198698384924 -645.9575117902413 12292.263320159496 11540.315023580482" width="600px">
	<defs/>
	<path d="M 3640.0,9923.0 C 3640.0,9918.0 3649.0,9842.0 3660.0,9754.0 C 3671.0,9667.0 3700.0,9363.0 3725.0,9080.0 C 3844.0,7729.0 3939.0,6704.0 4025.0,5840.0 C 4049.0,5595.0 4088.0,5195.0 4110.0,4950.0 C 4132.0,4705.0 4153.0,4490.0 4156.0,4472.0 C 4161.0,4442.0 4199.0,4407.0 4319.0,4323.0 C 4325.0,4319.0 4219.0,3797.0 4211.0,3788.0 C 4200.0,3776.0 1908.0,3826.0 1873.0,3840.0 C 1842.0,3851.0 1841.0,3853.0 1847.0,3896.0 C 1852.0,3931.0 1849.0,3941.0 1836.0,3946.0 C 1807.0,3957.0 1780.0,3922.0 1780.0,3875.0 C 1780.0,3815.0 1760.0,3800.0 1676.0,3800.0 C 1638.0,3800.0 1597.0,3794.0 1582.0,3786.0 C 1566.0,3778.0 1506.0,3768.0 1448.0,3764.0 C 1342.0,3757.0 1341.0,3758.0 1309.0,3784.0 C 1279.0,3809.0 1272.0,3811.0 1176.0,3810.0 C 1114.0,3809.0 1057.0,3814.0 1028.0,3823.0 L 982.0,3837.0 L 976.0,3806.0 C 972.0,3789.0 961.0,3766.0 950.0,3755.0 C 910.0,3715.0 870.0,3657.0 870.0,3639.0 C 870.0,3608.0 853.0,3617.0 826.0,3664.0 C 800.0,3709.0 721.0,3786.0 657.0,3830.0 C 637.0,3844.0 614.0,3871.0 605.0,3890.0 C 583.0,3938.0 545.0,3980.0 523.0,3980.0 C 513.0,3979.0 485.0,3962.0 461.0,3940.0 C 422.0,3906.0 414.0,3903.0 393.0,3913.0 C 362.0,3927.0 361.0,3925.0 315.0,3795.0 C 286.0,3712.0 279.0,3679.0 277.0,3603.0 C 275.0,3513.0 274.0,3510.0 241.0,3476.0 C 203.0,3436.0 117.0,3402.0 97.0,3418.0 C 90.0,3423.0 70.0,3425.0 52.0,3423.0 C 26.0,3419.0 20.0,3414.0 26.0,3401.0 C 55.0,3332.0 55.0,3333.0 26.0,3279.0 L -1.0,3226.0 L 39.0,3191.0 C 62.0,3171.0 84.0,3143.0 90.0,3128.0 C 96.0,3110.0 107.0,3100.0 120.0,3100.0 C 139.0,3100.0 140.0,3094.0 140.0,2998.0 C 140.0,2896.0 140.0,2895.0 168.0,2879.0 C 193.0,2865.0 196.0,2858.0 192.0,2825.0 C 188.0,2791.0 183.0,2786.0 139.0,2768.0 C 94.0,2749.0 90.0,2745.0 90.0,2713.0 C 90.0,2685.0 100.0,2667.0 139.0,2624.0 C 180.0,2579.0 189.0,2562.0 192.0,2527.0 C 195.0,2488.0 197.0,2485.0 226.0,2482.0 C 250.0,2480.0 262.0,2485.0 278.0,2505.0 C 296.0,2527.0 304.0,2530.0 333.0,2525.0 C 360.0,2520.0 371.0,2510.0 385.0,2482.0 C 394.0,2461.0 403.0,2429.0 404.0,2410.0 C 405.0,2386.0 421.0,2354.0 450.0,2313.0 L 493.0,2251.0 L 486.0,2174.0 C 482.0,2120.0 475.0,2093.0 465.0,2087.0 C 441.0,2074.0 445.0,1975.0 471.0,1939.0 L 492.0,1910.0 L 471.0,1867.0 C 459.0,1843.0 450.0,1812.0 450.0,1798.0 C 450.0,1779.0 444.0,1771.0 425.0,1766.0 C 393.0,1758.0 392.0,1725.0 422.0,1709.0 C 435.0,1702.0 462.0,1677.0 483.0,1653.0 C 534.0,1596.0 569.0,1595.0 637.0,1648.0 C 663.0,1669.0 691.0,1694.0 699.0,1703.0 C 706.0,1713.0 727.0,1720.0 744.0,1720.0 C 785.0,1720.0 840.0,1667.0 840.0,1628.0 C 840.0,1591.0 885.0,1540.0 917.0,1540.0 C 950.0,1540.0 1026.0,1601.0 1034.0,1634.0 C 1037.0,1648.0 1050.0,1662.0 1061.0,1665.0 C 1073.0,1669.0 1098.0,1683.0 1119.0,1697.0 C 1166.0,1729.0 1227.0,1725.0 1307.0,1683.0 C 1453.0,1608.0 1486.0,1592.0 1505.0,1587.0 C 1520.0,1582.0 1534.0,1592.0 1563.0,1631.0 C 1593.0,1670.0 1608.0,1680.0 1630.0,1680.0 C 1649.0,1680.0 1663.0,1687.0 1670.0,1700.0 C 1678.0,1715.0 1691.0,1720.0 1723.0,1720.0 C 1775.0,1720.0 1790.0,1733.0 1790.0,1777.0 C 1790.0,1799.0 1784.0,1813.0 1770.0,1820.0 C 1738.0,1837.0 1746.0,1858.0 1792.0,1870.0 C 1845.0,1885.0 1880.0,1877.0 1955.0,1837.0 C 2002.0,1812.0 2014.0,1800.0 2012.0,1785.0 C 2010.0,1774.0 2002.0,1761.0 1994.0,1757.0 C 1971.0,1744.0 1978.0,1716.0 2010.0,1685.0 C 2034.0,1662.0 2040.0,1648.0 2040.0,1614.0 C 2040.0,1576.0 2042.0,1572.0 2070.0,1567.0 C 2098.0,1561.0 2100.0,1557.0 2100.0,1518.0 C 2100.0,1494.0 2094.0,1449.0 2086.0,1418.0 C 2071.0,1353.0 2078.0,1340.0 2139.0,1319.0 C 2162.0,1311.0 2173.0,1300.0 2177.0,1279.0 C 2183.0,1245.0 2222.0,1200.0 2245.0,1200.0 C 2253.0,1200.0 2260.0,1194.0 2260.0,1187.0 C 2260.0,1179.0 2277.0,1168.0 2299.0,1162.0 C 2370.0,1140.0 2381.0,1094.0 2320.0,1075.0 C 2301.0,1069.0 2259.0,1040.0 2228.0,1010.0 C 2183.0,967.0 2171.0,948.0 2168.0,920.0 L 2165.0,885.0 L 2212.0,882.0 C 2255.0,879.0 2261.0,882.0 2272.0,904.0 C 2281.0,926.0 2290.0,930.0 2325.0,930.0 C 2394.0,930.0 2415.0,882.0 2391.0,779.0 C 2386.0,755.0 2388.0,709.0 2398.0,645.0 C 2413.0,554.0 2416.0,546.0 2444.0,529.0 C 2461.0,518.0 2483.0,510.0 2492.0,510.0 C 2501.0,510.0 2510.0,501.0 2512.0,488.0 C 2514.0,473.0 2525.0,464.0 2550.0,457.0 C 2600.0,444.0 2610.0,433.0 2610.0,389.0 C 2610.0,350.0 2610.0,350.0 2649.0,350.0 C 2686.0,350.0 2690.0,354.0 2720.0,403.0 C 2777.0,495.0 2784.0,500.0 2865.0,500.0 C 2932.0,500.0 2938.0,498.0 2948.0,475.0 C 2955.0,461.0 2967.0,447.0 2975.0,444.0 C 2983.0,440.0 2990.0,427.0 2990.0,414.0 C 2990.0,391.0 2993.0,390.0 3048.0,390.0 C 3095.0,390.0 3111.0,386.0 3126.0,369.0 C 3149.0,344.0 3193.0,320.0 3216.0,320.0 C 3226.0,320.0 3241.0,327.0 3251.0,336.0 C 3265.0,348.0 3266.0,356.0 3257.0,380.0 C 3243.0,418.0 3255.0,432.0 3318.0,445.0 C 3355.0,453.0 3370.0,453.0 3391.0,441.0 C 3435.0,416.0 3485.0,457.0 3445.0,486.0 C 3430.0,497.0 3428.0,509.0 3433.0,554.0 C 3436.0,584.0 3444.0,618.0 3450.0,630.0 C 3462.0,651.0 3462.0,651.0 3497.0,616.0 C 3538.0,576.0 3586.0,567.0 3596.0,598.0 C 3617.0,663.0 3623.0,670.0 3651.0,670.0 C 3666.0,670.0 3682.0,675.0 3685.0,680.0 C 3695.0,696.0 3720.0,672.0 3737.0,632.0 C 3749.0,604.0 3748.0,597.0 3733.0,574.0 C 3717.0,548.0 3717.0,547.0 3738.0,530.0 C 3767.0,506.0 3766.0,469.0 3735.0,440.0 C 3709.0,415.0 3701.0,372.0 3723.0,366.0 C 3729.0,364.0 3752.0,357.0 3773.0,351.0 C 3806.0,340.0 3814.0,341.0 3845.0,360.0 C 3864.0,372.0 3880.0,390.0 3880.0,400.0 C 3880.0,444.0 4031.0,509.0 4137.0,510.0 C 4204.0,510.0 4216.0,524.0 4225.0,608.0 C 4234.0,700.0 4234.0,709.0 4225.0,828.0 C 4216.0,928.0 4221.0,939.0 4265.0,940.0 C 4276.0,940.0 4302.0,956.0 4322.0,975.0 C 4366.0,1017.0 4390.0,1086.0 4390.0,1168.0 C 4390.0,1216.0 4385.0,1228.0 4356.0,1265.0 C 4337.0,1288.0 4311.0,1328.0 4298.0,1354.0 C 4279.0,1394.0 4278.0,1402.0 4290.0,1410.0 C 4314.0,1425.0 4481.0,1479.0 4525.0,1485.0 C 4675.0,1507.0 4668.0,1503.0 4793.0,1625.0 L 4909.0,1738.0 L 4899.0,1797.0 C 4893.0,1829.0 4884.0,1878.0 4878.0,1907.0 C 4863.0,1979.0 4876.0,1994.0 4942.0,1985.0 C 5010.0,1975.0 5030.0,1994.0 5030.0,2065.0 C 5030.0,2101.0 5025.0,2122.0 5014.0,2131.0 C 5006.0,2138.0 4987.0,2166.0 4973.0,2194.0 L 4948.0,2244.0 L 4973.0,2266.0 C 4987.0,2278.0 5007.0,2294.0 5017.0,2302.0 C 5028.0,2309.0 5048.0,2336.0 5063.0,2362.0 C 5078.0,2389.0 5104.0,2417.0 5120.0,2425.0 C 5153.0,2442.0 5164.0,2444.0 5155.0,2431.0 C 5152.0,2425.0 5171.0,2418.0 5197.0,2414.0 C 5229.0,2409.0 5276.0,2388.0 5340.0,2349.0 C 5448.0,2282.0 5500.0,2271.0 5500.0,2315.0 C 5500.0,2342.0 5513.0,2348.0 5585.0,2352.0 L 5624.0,2355.0 L 5621.0,2446.0 C 5620.0,2496.0 5623.0,2555.0 5629.0,2577.0 C 5638.0,2611.0 5645.0,2619.0 5671.0,2624.0 C 5695.0,2628.0 5709.0,2624.0 5735.0,2604.0 C 5759.0,2586.0 5778.0,2580.0 5802.0,2582.0 L 5835.0,2585.0 L 5842.0,2655.0 C 5853.0,2766.0 5868.0,2796.0 5964.0,2892.0 C 6081.0,3010.0 6093.0,3012.0 6226.0,2931.0 L 6325.0,2871.0 L 6357.0,2903.0 C 6387.0,2933.0 6391.0,2944.0 6407.0,3054.0 L 6425.0,3172.0 L 6700.0,3270.0 C 6851.0,3324.0 6992.0,3375.0 7012.0,3384.0 C 7033.0,3393.0 7083.0,3429.0 7124.0,3465.0 L 7198.0,3530.0 L 7284.0,3530.0 C 7366.0,3530.0 7371.0,3529.0 7381.0,3506.0 L 7392.0,3482.0 L 7444.0,3506.0 C 7472.0,3519.0 7500.0,3530.0 7507.0,3530.0 C 7513.0,3530.0 7556.0,3514.0 7602.0,3494.0 C 7680.0,3460.0 7688.0,3459.0 7735.0,3469.0 C 7763.0,3475.0 7805.0,3478.0 7830.0,3474.0 C 7855.0,3471.0 7894.0,3473.0 7917.0,3479.0 C 7951.0,3488.0 7972.0,3487.0 8025.0,3474.0 C 8086.0,3459.0 8097.0,3458.0 8173.0,3474.0 C 8254.0,3490.0 8255.0,3491.0 8310.0,3553.0 C 8340.0,3587.0 8383.0,3634.0 8405.0,3658.0 L 8445.0,3700.0 L 8979.0,3727.0 L 9513.0,3755.0 L 9534.0,3788.0 L 9555.0,3822.0 L 9665.0,3816.0 C 9726.0,3813.0 9787.0,3807.0 9803.0,3804.0 C 9827.0,3798.0 9830.0,3801.0 9830.0,3823.0 C 9830.0,3836.0 9836.0,3853.0 9844.0,3859.0 C 9852.0,3865.0 9867.0,3893.0 9879.0,3919.0 C 9899.0,3967.0 9932.0,3990.0 9980.0,3990.0 C 9999.0,3990.0 10050.0,4040.0 10050.0,4060.0 C 10050.0,4067.0 10063.0,4110.0 10079.0,4154.0 C 10095.0,4199.0 10110.0,4264.0 10113.0,4300.0 C 10119.0,4390.0 10158.0,4468.0 10202.0,4477.0 L 10233.0,4483.0 L 10228.0,4674.0 C 10225.0,4795.0 10227.0,4871.0 10233.0,4882.0 C 10244.0,4899.0 10163.0,6218.0 10150.0,6233.0 C 10147.0,6237.0 10022.0,6219.0 9874.0,6192.0 C 9623.0,6146.0 9604.0,6144.0 9596.0,6161.0 C 9592.0,6170.0 9568.0,6186.0 9545.0,6195.0 C 9480.0,6219.0 9474.0,6232.0 9504.0,6277.0 C 9518.0,6298.0 9530.0,6325.0 9530.0,6338.0 C 9530.0,6350.0 9536.0,6363.0 9544.0,6366.0 C 9565.0,6374.0 9572.0,6398.0 9559.0,6421.0 C 9554.0,6432.0 9539.0,6489.0 9527.0,6548.0 C 9513.0,6613.0 9496.0,6668.0 9483.0,6686.0 C 9453.0,6728.0 9397.0,6747.0 9261.0,6760.0 C 9198.0,6766.0 9120.0,6778.0 9087.0,6787.0 C 9033.0,6802.0 9022.0,6811.0 8971.0,6872.0 C 8940.0,6909.0 8907.0,6940.0 8897.0,6940.0 C 8887.0,6940.0 8865.0,6932.0 8847.0,6923.0 C 8811.0,6904.0 8788.0,6905.0 8713.0,6926.0 C 8628.0,6949.0 8570.0,7014.0 8570.0,7084.0 C 8570.0,7104.0 8564.0,7111.0 8543.0,7115.0 C 8473.0,7129.0 8403.0,7154.0 8375.0,7175.0 C 8359.0,7188.0 8327.0,7200.0 8305.0,7202.0 L 8265.0,7205.0 L 8264.0,7313.0 C 8264.0,7393.0 8260.0,7424.0 8249.0,7434.0 C 8241.0,7441.0 8071.0,7550.0 7871.0,7675.0 C 7577.0,7858.0 7432.0,7958.0 7126.0,8184.0 C 6916.0,8339.0 6279.0,8790.0 5710.0,9187.0 L 4675.0,9908.0 L 4265.0,9914.0 C 4040.0,9917.0 3807.0,9923.0 3748.0,9926.0 C 3683.0,9930.0 3640.0,9929.0 3640.0,9923.0" fill="pink"/>
</svg>

<?xml version="1.0" standalone="no"?>
<!DOCTYPE svg PUBLIC "-//W3C//DTD SVG 20010904//EN"
 "http://www.w3.org/TR/2001/REC-SVG-20010904/DTD/svg10.dtd">
<svg version="1.0" xmlns="http://www.w3.org/2000/svg"
 width="1024.000000pt" height="1024.000000pt" viewBox="0 0 1024.000000 1024.000000"
 preserveAspectRatio="xMidYMid meet">
<metadata>
Created by potrace 1.10, written by Peter Selinger 2001-2011
</metadata>
<g transform="translate(0.000000,1024.000000) scale(0.100000,-0.100000)"
fill="#000000" stroke="none">
<path d="M3640 9923 c0 -5 9 -81 20 -169 11 -87 40 -391 65 -674 119 -1351
214 -2376 300 -3240 24 -245 63 -645 85 -890 22 -245 43 -460 46 -478 5 -30
43 -65 163 -149 6 -4 -100 -526 -108 -535 -11 -12 -2303 38 -2338 52 -31 11
-32 13 -26 56 5 35 2 45 -11 50 -29 11 -56 -24 -56 -71 0 -60 -20 -75 -104
-75 -38 0 -79 -6 -94 -14 -16 -8 -76 -18 -134 -22 -106 -7 -107 -6 -139 20
-30 25 -37 27 -133 26 -62 -1 -119 4 -148 13 l-46 14 -6 -31 c-4 -17 -15 -40
-26 -51 -40 -40 -80 -98 -80 -116 0 -31 -17 -22 -44 25 -26 45 -105 122 -169
166 -20 14 -43 41 -52 60 -22 48 -60 90 -82 90 -10 -1 -38 -18 -62 -40 -39
-34 -47 -37 -68 -27 -31 14 -32 12 -78 -118 -29 -83 -36 -116 -38 -192 -2 -90
-3 -93 -36 -127 -38 -40 -124 -74 -144 -58 -7 5 -27 7 -45 5 -26 -4 -32 -9
-26 -22 29 -69 29 -68 0 -122 l-27 -53 40 -35 c23 -20 45 -48 51 -63 6 -18 17
-28 30 -28 19 0 20 -6 20 -102 0 -102 0 -103 28 -119 25 -14 28 -21 24 -54 -4
-34 -9 -39 -53 -57 -45 -19 -49 -23 -49 -55 0 -28 10 -46 49 -89 41 -45 50
-62 53 -97 3 -39 5 -42 34 -45 24 -2 36 3 52 23 18 22 26 25 55 20 27 -5 38
-15 52 -43 9 -21 18 -53 19 -72 1 -24 17 -56 46 -97 l43 -62 -7 -77 c-4 -54
-11 -81 -21 -87 -24 -13 -20 -112 6 -148 l21 -29 -21 -43 c-12 -24 -21 -55
-21 -69 0 -19 -6 -27 -25 -32 -32 -8 -33 -41 -3 -57 13 -7 40 -32 61 -56 51
-57 86 -58 154 -5 26 21 54 46 62 55 7 10 28 17 45 17 41 0 96 -53 96 -92 0
-37 45 -88 77 -88 33 0 109 61 117 94 3 14 16 28 27 31 12 4 37 18 58 32 47
32 108 28 188 -14 146 -75 179 -91 198 -96 15 -5 29 5 58 44 30 39 45 49 67
49 19 0 33 7 40 20 8 15 21 20 53 20 52 0 67 13 67 57 0 22 -6 36 -20 43 -32
17 -24 38 22 50 53 15 88 7 163 -33 47 -25 59 -37 57 -52 -2 -11 -10 -24 -18
-28 -23 -13 -16 -41 16 -72 24 -23 30 -37 30 -71 0 -38 2 -42 30 -47 28 -6 30
-10 30 -49 0 -24 -6 -69 -14 -100 -15 -65 -8 -78 53 -99 23 -8 34 -19 38 -40
6 -34 45 -79 68 -79 8 0 15 -6 15 -13 0 -8 17 -19 39 -25 71 -22 82 -68 21
-87 -19 -6 -61 -35 -92 -65 -45 -43 -57 -62 -60 -90 l-3 -35 47 -3 c43 -3 49
0 60 22 9 22 18 26 53 26 69 0 90 -48 66 -151 -5 -24 -3 -70 7 -134 15 -91 18
-99 46 -116 17 -11 39 -19 48 -19 9 0 18 -9 20 -22 2 -15 13 -24 38 -31 50
-13 60 -24 60 -68 0 -39 0 -39 39 -39 37 0 41 4 71 53 57 92 64 97 145 97 67
0 73 -2 83 -25 7 -14 19 -28 27 -31 8 -4 15 -17 15 -30 0 -23 3 -24 58 -24 47
0 63 -4 78 -21 23 -25 67 -49 90 -49 10 0 25 7 35 16 14 12 15 20 6 44 -14 38
-2 52 61 65 37 8 52 8 73 -4 44 -25 94 16 54 45 -15 11 -17 23 -12 68 3 30 11
64 17 76 12 21 12 21 47 -14 41 -40 89 -49 99 -18 21 65 27 72 55 72 15 0 31
5 34 10 10 16 35 -8 52 -48 12 -28 11 -35 -4 -58 -16 -26 -16 -27 5 -44 29
-24 28 -61 -3 -90 -26 -25 -34 -68 -12 -74 6 -2 29 -9 50 -15 33 -11 41 -10
72 9 19 12 35 30 35 40 0 44 151 109 257 110 67 0 79 14 88 98 9 92 9 101 0
220 -9 100 -4 111 40 112 11 0 37 16 57 35 44 42 68 111 68 193 0 48 -5 60
-34 97 -19 23 -45 63 -58 89 -19 40 -20 48 -8 56 24 15 191 69 235 75 150 22
143 18 268 140 l116 113 -10 59 c-6 32 -15 81 -21 110 -15 72 -2 87 64 78 68
-10 88 9 88 80 0 36 -5 57 -16 66 -8 7 -27 35 -41 63 l-25 50 25 22 c14 12 34
28 44 36 11 7 31 34 46 60 15 27 41 55 57 63 33 17 44 19 35 6 -3 -6 16 -13
42 -17 32 -5 79 -26 143 -65 108 -67 160 -78 160 -34 0 27 13 33 85 37 l39 3
-3 91 c-1 50 2 109 8 131 9 34 16 42 42 47 24 4 38 0 64 -20 24 -18 43 -24 67
-22 l33 3 7 70 c11 111 26 141 122 237 117 118 129 120 262 39 l99 -60 32 32
c30 30 34 41 50 151 l18 118 275 98 c151 54 292 105 312 114 21 9 71 45 112
81 l74 65 86 0 c82 0 87 -1 97 -24 l11 -24 52 24 c28 13 56 24 63 24 6 0 49
-16 95 -36 78 -34 86 -35 133 -25 28 6 70 9 95 5 25 -3 64 -1 87 5 34 9 55 8
108 -5 61 -15 72 -16 148 0 81 16 82 17 137 79 30 34 73 81 95 105 l40 42 534
27 534 28 21 33 21 34 110 -6 c61 -3 122 -9 138 -12 24 -6 27 -3 27 19 0 13 6
30 14 36 8 6 23 34 35 60 20 48 53 71 101 71 19 0 70 50 70 70 0 7 13 50 29
94 16 45 31 110 34 146 6 90 45 168 89 177 l31 6 -5 191 c-3 121 -1 197 5 208
11 17 -70 1336 -83 1351 -3 4 -128 -14 -276 -41 -251 -46 -270 -48 -278 -31
-4 9 -28 25 -51 34 -65 24 -71 37 -41 82 14 21 26 48 26 61 0 12 6 25 14 28
21 8 28 32 15 55 -5 11 -20 68 -32 127 -14 65 -31 120 -44 138 -30 42 -86 61
-222 74 -63 6 -141 18 -174 27 -54 15 -65 24 -116 85 -31 37 -64 68 -74 68
-10 0 -32 -8 -50 -17 -36 -19 -59 -18 -134 3 -85 23 -143 88 -143 158 0 20 -6
27 -27 31 -70 14 -140 39 -168 60 -16 13 -48 25 -70 27 l-40 3 -1 108 c0 80
-4 111 -15 121 -8 7 -178 116 -378 241 -294 183 -439 283 -745 509 -210 155
-847 606 -1416 1003 l-1035 721 -410 6 c-225 3 -458 9 -517 12 -65 4 -108 3
-108 -3z"/>
</g>
</svg>
